X:7298
T:Humors of Tulla
M:4/4
L:1/8
R:Reel
K:D maj
| d2 Ad BdAB | d2 fd eABA | d2 Ad BdAd | (3Bcd ef gefe |
d2 Ad BdAB | d2 fd eABA | d2 Ad BdAd | (3Bcd ef g2 fg |
| af ~f2 df ~f2 | af ~f2 ge ~e2 | af ~f2 dfed | (3Bcd ef g2 fg |
| af ~f2 bf ~f2 | af ~f2 ge ~e2 | af ~f2 dfed | (3Bcd ef g2 fe |


